static/images/mobile/copyright/wikipedia-tagline-cr.svg

<svg width="120" height="10" viewBox="0 0 120 10" fill="none" xmlns="http://www.w3.org/2000/svg">
<path d="M2.2296 7.06601C2.22959 7.24115 2.25823 7.40861 2.31551 7.5684C2.37278 7.7282 2.45311 7.86954 2.55649 7.99245C2.65986 8.11537 2.78001 8.21447 2.91691 8.28975C3.05382 8.36504 3.2005 8.40268 3.35697 8.40268C3.50504 8.40268 3.64614 8.36504 3.78025 8.28975C3.91436 8.21447 4.03171 8.11537 4.13229 7.99245C4.23287 7.86954 4.3132 7.72666 4.37328 7.56379C4.43334 7.40094 4.46338 7.23501 4.46338 7.06601C4.46338 6.89393 4.43753 6.72645 4.38585 6.56358C4.33416 6.40073 4.25942 6.25631 4.16163 6.13033C4.06384 6.00434 3.94649 5.9037 3.80959 5.82841C3.67268 5.75312 3.52181 5.71549 3.35697 5.71548C3.18932 5.71549 3.03705 5.7516 2.90015 5.82381C2.76324 5.89603 2.6459 5.99358 2.54811 6.1165C2.45032 6.23941 2.37278 6.38231 2.31551 6.54516C2.25823 6.70802 2.22959 6.88164 2.2296 7.06601ZM0 5.71548V5.04253H3.35697C3.60283 5.04254 3.83403 5.09785 4.05057 5.20846C4.2671 5.31909 4.45709 5.46736 4.62054 5.65325C4.78398 5.83917 4.91321 6.05505 5.00821 6.30087C5.1032 6.5467 5.1507 6.80481 5.1507 7.07521C5.1507 7.35177 5.1032 7.61066 5.00821 7.85189C4.91321 8.0931 4.78398 8.30512 4.62054 8.48795C4.45709 8.67079 4.2671 8.81445 4.05057 8.91893C3.83403 9.0234 3.60283 9.07563 3.35697 9.07563C3.11668 9.07563 2.88618 9.02032 2.66546 8.9097C2.44473 8.79907 2.25125 8.65081 2.08501 8.4649C1.91876 8.279 1.78745 8.06391 1.69106 7.81962C1.59466 7.57533 1.54646 7.31644 1.54647 7.04295C1.54646 6.93848 1.55485 6.82478 1.57161 6.70186C1.58837 6.57896 1.61352 6.45605 1.64705 6.33313C1.68058 6.21022 1.72598 6.09499 1.78326 5.98744C1.84053 5.87989 1.90968 5.78923 1.99071 5.71548H0ZM6.86481 6.1672H6.18587V2.51206H6.86481V6.1672ZM8.65016 6.1672H7.97122V2.51206H8.65016V6.1672ZM14.6768 8.26441L12.6777 3.71506L10.666 8.26441H14.6768ZM12.6777 2.36456L15.6533 8.92352H9.68952L12.6777 2.36456ZM16.6801 2.50283H17.3758V5.31908H19.6934H21.2105V5.98744L17.8451 8.92352H16.81L20.1711 5.98744H16.6801V2.50283ZM23.2222 3.17578L25.2254 7.72513L27.2329 3.17578H23.2222ZM25.2254 9.07563L22.2457 2.51206H28.2094L25.2254 9.07563ZM29.2362 5.72471C29.2362 5.54649 29.2907 5.39976 29.3996 5.28453C29.5086 5.1693 29.6371 5.11168 29.7852 5.11167C29.9221 5.11168 30.0492 5.17082 30.1666 5.28912C30.2839 5.40743 30.3426 5.55264 30.3426 5.72471C30.3426 5.88143 30.2881 6.01969 30.1792 6.13953C30.0702 6.25938 29.9389 6.31929 29.7852 6.31929C29.6483 6.31929 29.5226 6.26246 29.408 6.14876C29.2935 6.03507 29.2362 5.89372 29.2362 5.72471ZM35.0197 8.26441V2.51206H35.7154V8.92352H31.382V8.26441H35.0197ZM41.7337 8.26441L39.7346 3.71506L37.7229 8.26441H41.7337ZM39.7346 2.36456L42.7102 8.92352H36.7464L39.7346 2.36456ZM43.7369 5.72471C43.7369 5.54649 43.7914 5.39976 43.9004 5.28453C44.0094 5.1693 44.1379 5.11168 44.286 5.11167C44.4229 5.11168 44.55 5.17082 44.6673 5.28912C44.7847 5.40743 44.8434 5.55264 44.8434 5.72471C44.8434 5.88143 44.7889 6.01969 44.6799 6.13953C44.5709 6.25938 44.4396 6.31929 44.286 6.31929C44.1491 6.31929 44.0233 6.26246 43.9088 6.14876C43.7942 6.03507 43.7369 5.89372 43.7369 5.72471ZM47.1191 5.16699C47.2951 5.16699 47.4564 5.09324 47.6031 4.94573C47.7498 4.79825 47.8231 4.60467 47.8231 4.36498C47.8231 4.24514 47.8029 4.13452 47.7624 4.03312C47.7219 3.93171 47.6688 3.84491 47.6031 3.77269C47.5375 3.70048 47.462 3.6444 47.3768 3.60444C47.2916 3.5645 47.2057 3.54453 47.1191 3.54453C47.0324 3.54453 46.9479 3.5645 46.8655 3.60444C46.7831 3.6444 46.709 3.70048 46.6434 3.77269C46.5777 3.84491 46.526 3.93171 46.4883 4.03312C46.4506 4.13452 46.4317 4.24514 46.4317 4.36498C46.4317 4.60467 46.5016 4.79825 46.6413 4.94573C46.781 5.09324 46.9402 5.16699 47.1191 5.16699ZM47.1107 5.71548C46.9374 5.71549 46.7768 5.68092 46.6287 5.61179C46.4806 5.54265 46.3507 5.44662 46.239 5.32369C46.1272 5.20079 46.0399 5.05713 45.977 4.89273C45.9142 4.72833 45.8827 4.55243 45.8827 4.36498C45.8827 4.16832 45.9142 3.98702 45.977 3.82109C46.0399 3.65516 46.1272 3.51073 46.239 3.3878C46.3507 3.2649 46.4806 3.16734 46.6287 3.09512C46.7768 3.02291 46.9374 2.98681 47.1107 2.98681C47.2811 2.98681 47.4439 3.02291 47.5989 3.09512C47.754 3.16734 47.8874 3.2649 47.9992 3.3878C48.1109 3.51073 48.1996 3.65516 48.2653 3.82109C48.3309 3.98702 48.3638 4.16832 48.3638 4.36498C48.3638 4.40801 48.361 4.46716 48.3554 4.54244C48.3498 4.61772 48.3428 4.69532 48.3344 4.77521C48.3261 4.8551 48.3128 4.92807 48.2946 4.99413C48.2765 5.0602 48.259 5.10554 48.2422 5.13012H49.7426V5.71548H47.1107ZM53.0912 5.72471C53.0912 5.54649 53.1457 5.39976 53.2546 5.28453C53.3636 5.1693 53.4921 5.11168 53.6402 5.11167C53.7771 5.11168 53.9042 5.17082 54.0216 5.28912C54.1389 5.40743 54.1976 5.55264 54.1976 5.72471C54.1976 5.88143 54.1431 6.01969 54.0342 6.13953C53.9252 6.25938 53.7939 6.31929 53.6402 6.31929C53.5033 6.31929 53.3776 6.26246 53.263 6.14876C53.1485 6.03507 53.0912 5.89372 53.0912 5.72471ZM60.2242 8.26441L58.2251 3.71506L56.2135 8.26441H60.2242ZM58.2251 2.36456L61.2007 8.92352H55.237L58.2251 2.36456ZM64.7002 4.05155C64.7002 3.91328 64.6757 3.77653 64.6268 3.64133C64.5779 3.50612 64.5102 3.38705 64.4236 3.28411C64.337 3.18118 64.2371 3.0982 64.1239 3.03521C64.0108 2.97222 63.8899 2.94073 63.7614 2.94072C63.6301 2.94073 63.5085 2.97222 63.3968 3.03521C63.285 3.0982 63.1879 3.18118 63.1055 3.28411C63.0231 3.38705 62.9574 3.50612 62.9085 3.64133C62.8596 3.77653 62.8352 3.91328 62.8352 4.05155C62.8352 4.19598 62.8596 4.33578 62.9085 4.47098C62.9574 4.6062 63.0231 4.72603 63.1055 4.8305C63.1879 4.93498 63.285 5.01873 63.3968 5.08172C63.5085 5.14471 63.6301 5.17621 63.7614 5.1762C63.8899 5.17621 64.0108 5.14471 64.1239 5.08172C64.2371 5.01873 64.337 4.93498 64.4236 4.8305C64.5102 4.72603 64.5779 4.6062 64.6268 4.47098C64.6757 4.33578 64.7002 4.19598 64.7002 4.05155ZM65.3162 4.05155C65.3162 4.29124 65.2764 4.51324 65.1968 4.71758C65.1172 4.92193 65.0054 5.10323 64.8615 5.26148C64.7176 5.41973 64.5514 5.54264 64.3628 5.63021C64.1742 5.71779 63.9737 5.76157 63.7614 5.76157C63.6077 5.76157 63.461 5.73623 63.3213 5.68552C63.1816 5.63483 63.0489 5.56492 62.9232 5.47581V8.92352H62.2275V4.05155C62.2275 3.81802 62.2673 3.59754 62.3469 3.39011C62.4266 3.1827 62.5369 3.00217 62.678 2.84852C62.8191 2.69489 62.9826 2.57428 63.1684 2.48669C63.3542 2.39913 63.5518 2.35534 63.7614 2.35533C63.9737 2.35534 64.1742 2.39913 64.3628 2.48669C64.5514 2.57428 64.7176 2.69489 64.8615 2.84852C65.0054 3.00217 65.1172 3.1827 65.1968 3.39011C65.2764 3.59754 65.3162 3.81802 65.3162 4.05155ZM71.6446 8.92352L69.3312 3.70123L67.022 8.92352H66.3514L69.3312 2.35533L72.3152 8.92352H71.6446ZM77.5748 5.53572C77.5664 5.24688 77.5238 4.9542 77.447 4.65767C77.3702 4.36114 77.2591 4.09149 77.1138 3.84873C76.9685 3.60599 76.7855 3.40779 76.5648 3.25414C76.3441 3.1005 76.0912 3.02368 75.8062 3.02367C75.5073 3.02368 75.2474 3.09898 75.0267 3.24954C74.806 3.40011 74.623 3.59523 74.4777 3.8349C74.3324 4.0746 74.2227 4.34424 74.1487 4.64384C74.0747 4.94345 74.0376 5.24381 74.0376 5.54495V8.92352H73.3419V5.60025C73.3419 5.09631 73.3908 4.65613 73.4886 4.27971C73.5864 3.90329 73.7555 3.5599 73.9957 3.24954C74.2528 2.94226 74.5315 2.7164 74.8318 2.57197C75.1322 2.42756 75.457 2.35534 75.8062 2.35533C75.9823 2.35534 76.1464 2.3707 76.2987 2.40142C76.4509 2.43216 76.5983 2.47672 76.7408 2.53509C77.0202 2.64573 77.2801 2.86237 77.5203 3.18501C77.7662 3.52303 77.952 3.88715 78.0777 4.27739C78.2035 4.66765 78.2663 5.09632 78.2663 5.56339V8.92352H77.5748V5.53572ZM79.2931 2.50283H79.9888V5.31908H82.3064H83.8236V5.98744L80.4582 8.92352H79.423L82.7842 5.98744H79.2931V2.50283ZM92.1594 8.26441L90.1603 3.71506L88.1486 8.26441H92.1594ZM90.1603 2.36456L93.1359 8.92352H87.1721L90.1603 2.36456ZM89.6029 0.613046C89.6029 0.4379 89.6574 0.291931 89.7664 0.175152C89.8753 0.0583914 90.0038 9.43976e-06 90.1519 0C90.2888 9.43976e-06 90.4159 0.0599327 90.5333 0.179761C90.6506 0.299618 90.7093 0.444046 90.7093 0.613046C90.7093 0.769765 90.6548 0.908036 90.5459 1.02786C90.4369 1.14771 90.3056 1.20764 90.1519 1.20763C90.015 1.20764 89.8893 1.1508 89.7747 1.0371C89.6602 0.923405 89.6029 0.782055 89.6029 0.613046ZM94.1627 5.43892H97.6538L94.2926 2.50283H95.3278L98.6931 5.43892V6.11188H97.176H94.8584V8.92352H94.1627V5.43892ZM104.259 5.98744H100.776L104.133 8.92352H103.094L99.7283 5.98744V5.31908H101.254H103.571V2.50283H104.259V5.98744ZM103.366 0.613046C103.366 0.4379 103.421 0.291931 103.529 0.175152C103.638 0.0583914 103.767 9.43976e-06 103.915 0C104.052 9.43976e-06 104.179 0.0599327 104.296 0.179761C104.414 0.299618 104.472 0.444046 104.472 0.613046C104.472 0.769765 104.418 0.908036 104.309 1.02786C104.2 1.14771 104.069 1.20764 103.915 1.20763C103.778 1.20764 103.652 1.1508 103.538 1.0371C103.423 0.923405 103.366 0.782055 103.366 0.613046ZM108.642 5.10246C108.791 5.00106 108.89 4.89811 108.942 4.79363C108.994 4.68916 109.025 4.53705 109.036 4.33731C109.036 4.09764 108.986 3.90867 108.886 3.77039C108.785 3.63211 108.686 3.56297 108.588 3.56297C108.445 3.56297 108.324 3.61137 108.223 3.70816C108.123 3.80496 108.033 3.92403 107.953 4.06538C107.873 4.20673 107.801 4.35499 107.735 4.51017C107.669 4.66535 107.599 4.80286 107.523 4.9227C107.403 5.13473 107.245 5.31987 107.048 5.47812C106.851 5.63637 106.624 5.71549 106.367 5.71548C106.199 5.71549 106.05 5.67939 105.918 5.60718C105.787 5.53496 105.676 5.43586 105.585 5.30987C105.494 5.18389 105.423 5.03717 105.371 4.8697C105.32 4.70222 105.294 4.52476 105.294 4.33731C105.294 4.13451 105.32 3.95014 105.371 3.7842C105.423 3.61828 105.488 3.48153 105.566 3.37398C105.745 3.15274 105.925 3.02369 106.107 2.98681L106.316 3.59983C106.16 3.68895 106.055 3.78651 106 3.89252C105.946 3.99854 105.916 4.1468 105.91 4.33731C105.91 4.41106 105.918 4.49558 105.933 4.59084C105.948 4.68609 105.974 4.77289 106.011 4.85124C106.047 4.92961 106.095 4.99568 106.155 5.04946C106.215 5.10323 106.286 5.13012 106.367 5.13012H106.375C106.495 5.13012 106.601 5.09402 106.692 5.0218C106.782 4.9496 106.866 4.85816 106.941 4.74754C107.016 4.63692 107.083 4.52016 107.14 4.39725C107.197 4.27433 107.251 4.1591 107.301 4.05155C107.371 3.91328 107.447 3.78114 107.53 3.65516C107.612 3.52917 107.705 3.41625 107.808 3.31638C107.912 3.21651 108.026 3.1366 108.152 3.07668C108.278 3.01677 108.42 2.98681 108.58 2.98681C108.736 2.98681 108.88 3.02446 109.011 3.09974C109.143 3.17502 109.255 3.27565 109.349 3.40163C109.442 3.52762 109.516 3.67205 109.571 3.8349C109.625 3.99778 109.652 4.16523 109.652 4.33731C109.652 4.50632 109.629 4.6692 109.583 4.82591C109.537 4.98263 109.477 5.12398 109.403 5.24996C109.329 5.37595 109.244 5.48042 109.147 5.56339C109.051 5.64635 108.951 5.69704 108.848 5.71548L108.642 5.10246ZM114.925 2.51206H115.616V5.87221C115.616 6.77255 115.368 7.5638 114.87 8.24598C114.63 8.56555 114.37 8.78218 114.091 8.89587C113.817 9.01572 113.505 9.07563 113.156 9.07563C112.807 9.07563 112.482 9.00495 112.182 8.8636C111.881 8.72225 111.603 8.4964 111.346 8.18604C111.105 7.87261 110.936 7.52693 110.839 7.14897C110.741 6.77102 110.692 6.33313 110.692 5.83534V2.51206H111.388V5.89524C111.388 6.19639 111.423 6.49599 111.494 6.79405C111.566 7.09212 111.674 7.36099 111.819 7.60067C111.965 7.84035 112.149 8.03395 112.372 8.18145C112.596 8.32894 112.857 8.40268 113.156 8.40268C113.441 8.40268 113.694 8.32586 113.915 8.17221C114.135 8.01857 114.318 7.82191 114.464 7.58223C114.609 7.34255 114.72 7.07369 114.797 6.77562C114.874 6.47756 114.916 6.18718 114.925 5.90447V2.51206ZM119.346 4.32811C119.346 4.19598 119.318 4.05846 119.26 3.91556C119.203 3.77268 119.129 3.64516 119.038 3.533C118.947 3.42084 118.84 3.32866 118.715 3.25644C118.591 3.18424 118.466 3.14814 118.34 3.14814C118.209 3.14814 118.079 3.17963 117.951 3.24261C117.822 3.30561 117.708 3.39013 117.607 3.49614C117.506 3.60215 117.425 3.72737 117.362 3.87179C117.299 4.01622 117.267 4.16832 117.267 4.32811C117.267 4.49097 117.296 4.64307 117.353 4.78441C117.411 4.92577 117.49 5.05021 117.59 5.15776C117.691 5.26532 117.805 5.3506 117.934 5.41359C118.062 5.47658 118.198 5.51114 118.34 5.51728C118.461 5.51114 118.581 5.47505 118.701 5.40898C118.821 5.34291 118.929 5.25456 119.024 5.14393C119.118 5.03332 119.196 4.90733 119.256 4.76597C119.316 4.62463 119.346 4.47868 119.346 4.32811ZM120 4.32811C120 4.82898 119.834 5.2561 119.501 5.60948C119.158 5.96286 118.771 6.13953 118.34 6.13953C117.837 6.13953 117.444 5.96286 117.159 5.60948H117.15C116.812 5.24996 116.643 4.82284 116.643 4.32811C116.643 4.07613 116.687 3.83952 116.775 3.61827C116.863 3.39703 116.985 3.20497 117.14 3.04211C117.295 2.87926 117.475 2.7502 117.68 2.65493C117.886 2.55969 118.106 2.51206 118.34 2.51206C118.776 2.51206 119.166 2.68874 119.51 3.04211C119.837 3.3955 120 3.82417 120 4.32811Z" fill="black"/>
</svg>

<svg xmlns="http://www.w3.org/2000/svg" width="120" height="10" fill="none"><path fill="#000" d="M2.23 7.066c0 .175.028.343.086.502.057.16.137.302.24.424.104.123.224.222.36.298a.9.9 0 0 0 .441.113c.148 0 .29-.038.423-.113a1.23 1.23 0 0 0 .352-.298c.1-.122.181-.265.241-.428.06-.163.09-.329.09-.498 0-.172-.025-.34-.077-.502a1.38 1.38 0 0 0-.224-.434 1.133 1.133 0 0 0-.352-.302.924.924 0 0 0-.453-.113.964.964 0 0 0-.457.109c-.137.072-.254.17-.352.293a1.46 1.46 0 0 0-.232.428 1.558 1.558 0 0 0-.086.521ZM0 5.716v-.673h3.357c.246 0 .477.055.694.165.216.111.406.26.57.445.163.186.292.402.387.648.095.246.143.504.143.774a2.1 2.1 0 0 1-.53 1.413 1.818 1.818 0 0 1-.57.43 1.576 1.576 0 0 1-1.386-.008 1.936 1.936 0 0 1-.58-.445 2.132 2.132 0 0 1-.539-1.422 2.878 2.878 0 0 1 .1-.71c.035-.123.08-.238.137-.346a.997.997 0 0 1 .208-.272H0Zm6.865.451h-.68V2.512h.68v3.655Zm1.785 0h-.679V2.512h.68v3.655Zm6.027 2.097-2-4.549-2.011 4.55h4.01Zm-2-5.9 2.976 6.56H9.69l2.988-6.56Zm4.003.139h.696v2.816h3.834v.668l-3.365 2.937H16.81l3.361-2.937h-3.49V2.503Zm6.542.673 2.003 4.55 2.008-4.55h-4.01Zm2.003 5.9-2.98-6.564h5.964l-2.984 6.564Zm4.011-3.351c0-.179.055-.325.164-.44a.514.514 0 0 1 .385-.173.53.53 0 0 1 .382.177.595.595 0 0 1 .176.436.598.598 0 0 1-.164.415.514.514 0 0 1-.394.18.526.526 0 0 1-.377-.171.574.574 0 0 1-.172-.424Zm5.784 2.54V2.511h.695v6.412h-4.333v-.66h3.638Zm6.714 0-2-4.55-2.011 4.55h4.01Zm-2-5.9 2.976 6.559h-5.964l2.989-6.56Zm4.003 3.36c0-.179.054-.325.163-.44a.514.514 0 0 1 .386-.173.53.53 0 0 1 .381.177.595.595 0 0 1 .176.436.598.598 0 0 1-.163.415.514.514 0 0 1-.394.18.526.526 0 0 1-.377-.171.573.573 0 0 1-.172-.424Zm3.382-.558a.671.671 0 0 0 .484-.221.788.788 0 0 0 .22-.581.887.887 0 0 0-.22-.592.712.712 0 0 0-.226-.169.575.575 0 0 0-.511 0 .728.728 0 0 0-.223.169.792.792 0 0 0-.155.26.945.945 0 0 0-.056.332c0 .24.07.433.21.58.139.148.298.222.477.222Zm-.008.548c-.174 0-.334-.034-.482-.103a1.219 1.219 0 0 1-.39-.288 1.35 1.35 0 0 1-.262-.431 1.466 1.466 0 0 1-.094-.528c0-.197.031-.378.094-.544.063-.166.15-.31.262-.433a1.28 1.28 0 0 1 .39-.293 1.143 1.143 0 0 1 .97 0c.155.072.288.17.4.293.112.123.2.267.266.433.066.166.099.347.099.544a7.667 7.667 0 0 1-.03.41c-.008.08-.021.153-.04.22a.498.498 0 0 1-.052.135h1.5v.585h-2.631Zm5.98.01c0-.179.055-.325.164-.44a.514.514 0 0 1 .385-.173.53.53 0 0 1 .382.177.595.595 0 0 1 .176.436.598.598 0 0 1-.164.415.514.514 0 0 1-.394.18.526.526 0 0 1-.377-.171.574.574 0 0 1-.172-.424Zm7.133 2.54-1.999-4.55-2.011 4.55h4.01Zm-1.999-5.9 2.976 6.559h-5.964l2.988-6.56ZM64.7 4.052c0-.139-.024-.275-.073-.41a1.164 1.164 0 0 0-.203-.358 1.069 1.069 0 0 0-.3-.249.734.734 0 0 0-.363-.094.73.73 0 0 0-.364.094.999.999 0 0 0-.291.25 1.243 1.243 0 0 0-.198.356 1.198 1.198 0 0 0 0 .83c.05.135.115.255.197.36.083.104.18.188.292.25a.73.73 0 0 0 .364.095c.129 0 .25-.031.363-.094.113-.063.213-.147.3-.252a1.224 1.224 0 0 0 .277-.779Zm.616 0c0 .24-.04.461-.12.666-.079.204-.19.385-.334.543-.144.159-.31.282-.5.37a1.41 1.41 0 0 1-.6.13c-.154 0-.301-.025-.44-.075-.14-.051-.273-.121-.399-.21v3.448h-.696V4.052c0-.234.04-.454.12-.662.08-.207.19-.388.331-.541.141-.154.305-.275.49-.362a1.411 1.411 0 0 1 1.194 0c.19.087.356.208.5.362.143.153.255.334.335.541.08.208.12.428.12.662Zm6.329 4.872L69.33 3.7l-2.309 5.223h-.67l2.98-6.569 2.983 6.569h-.67Zm5.93-3.388a3.953 3.953 0 0 0-.128-.878 3.058 3.058 0 0 0-.333-.81 1.906 1.906 0 0 0-.55-.594 1.295 1.295 0 0 0-.758-.23 1.35 1.35 0 0 0-.78.226c-.22.15-.403.345-.548.585-.146.24-.255.51-.33.809-.073.3-.11.6-.11.9v3.38h-.696V5.6c0-.504.049-.944.147-1.32a2.83 2.83 0 0 1 .507-1.03c.257-.308.535-.534.836-.678.3-.144.625-.217.974-.217a2.436 2.436 0 0 1 .935.18c.28.11.54.327.78.65.245.338.431.702.557 1.092.126.39.188.82.188 1.286v3.36h-.691V5.537Zm1.718-3.033h.696v2.816h3.835v.668l-3.366 2.937h-1.035l3.361-2.937h-3.49V2.503ZM92.16 8.264 90.16 3.715l-2.011 4.55h4.01Zm-1.999-5.9 2.976 6.56h-5.964l2.988-6.56ZM89.603.614c0-.175.054-.321.163-.438A.51.51 0 0 1 90.152 0c.137 0 .264.06.381.18.118.12.176.264.176.433a.598.598 0 0 1-.163.415.514.514 0 0 1-.394.18.526.526 0 0 1-.377-.17.574.574 0 0 1-.172-.425Zm4.56 4.826h3.49l-3.36-2.936h1.035l3.365 2.936v.673h-3.835v2.812h-.695V5.439Zm10.096.548h-3.483l3.357 2.937h-1.039l-3.366-2.937V5.32h3.843V2.503h.688v3.484Zm-.893-5.374c0-.175.055-.321.163-.438a.512.512 0 0 1 .386-.175c.137 0 .264.06.381.18.118.12.176.264.176.433a.598.598 0 0 1-.163.415.513.513 0 0 1-.394.18.525.525 0 0 1-.377-.17.572.572 0 0 1-.172-.425Zm5.276 4.49a.864.864 0 0 0 .3-.31c.052-.104.083-.256.094-.456 0-.24-.05-.428-.15-.567-.101-.138-.2-.207-.298-.207a.507.507 0 0 0-.365.145c-.1.097-.19.216-.27.357-.08.142-.152.29-.218.445a2.862 2.862 0 0 1-.212.413c-.12.212-.278.397-.475.555a1.056 1.056 0 0 1-.681.237.918.918 0 0 1-.449-.108 1.008 1.008 0 0 1-.333-.297 1.509 1.509 0 0 1-.214-.44 1.818 1.818 0 0 1-.077-.533c0-.202.026-.387.077-.553a1.42 1.42 0 0 1 .195-.41c.179-.221.359-.35.541-.387l.209.613c-.156.089-.261.187-.316.293a1.072 1.072 0 0 0-.09.444c0 .074.008.159.023.254a.954.954 0 0 0 .078.26.597.597 0 0 0 .144.198c.06.054.131.081.212.081h.008c.12 0 .226-.036.317-.108.09-.072.174-.164.249-.274.075-.111.142-.228.199-.35l.161-.346c.07-.139.146-.27.229-.397.082-.126.175-.239.278-.339a1.3 1.3 0 0 1 .344-.24.983.983 0 0 1 .428-.09c.156 0 .3.038.431.114.132.075.244.176.338.302a1.586 1.586 0 0 1 .303.936c0 .168-.023.331-.069.488a1.878 1.878 0 0 1-.18.424 1.22 1.22 0 0 1-.256.313.628.628 0 0 1-.299.152l-.206-.613Zm6.283-2.59h.691v3.36c0 .9-.248 1.69-.746 2.373-.24.32-.5.536-.779.65-.274.12-.586.18-.935.18-.349 0-.674-.071-.974-.212a2.451 2.451 0 0 1-.836-.678 2.846 2.846 0 0 1-.507-1.037 5.261 5.261 0 0 1-.147-1.314V2.512h.696v3.383c0 .301.035.601.106.9.072.297.18.566.325.806.146.24.33.433.553.58.224.148.485.222.784.222.285 0 .538-.077.759-.23.22-.154.403-.351.549-.59.145-.24.256-.51.333-.807.077-.298.119-.589.128-.872V2.512Zm4.421 1.815c0-.132-.028-.27-.086-.412a1.463 1.463 0 0 0-.222-.383 1.159 1.159 0 0 0-.323-.277.739.739 0 0 0-.375-.108.874.874 0 0 0-.389.095 1.198 1.198 0 0 0-.344.253 1.279 1.279 0 0 0-.245.376 1.209 1.209 0 0 0 .228 1.286c.101.107.215.193.344.256.128.063.264.097.406.103a.83.83 0 0 0 .361-.108c.12-.066.228-.154.323-.265.094-.11.172-.237.232-.378.06-.141.09-.287.09-.438Zm.654 0c0 .501-.166.928-.499 1.281-.343.354-.73.53-1.161.53-.503 0-.896-.176-1.181-.53h-.009a1.807 1.807 0 0 1-.507-1.28c0-.253.044-.49.132-.71a1.781 1.781 0 0 1 .905-.964c.206-.095.426-.143.66-.143.436 0 .826.177 1.17.53.327.354.49.782.49 1.286Z"/></svg>
